exports/relative-weight-of-two-forms-of-consumption-taxation_v1_850x600.svg

<svg xmlns="http://www.w3.org/2000/svg" version="1.1" style="background-color:#fff;-webkit-font-smoothing:antialiased" width="850" height="600" font-family="'Helvetica Neue',Helvetica,Arial,sans-serif" font-size="18" text-rendering="optimizeLegibility"><g class="ChartTab"><g class="HeaderView"><g opacity=".8" transform="matrix(.31 0 0 .31 770 15)"><a xmlns:xlink="http://www.w3.org/1999/xlink" xlink:href="https://ourworldindata.org" target="_blank"><g><path fill="#1B2543" d="M0 0h211.2v130.1H0z"/><path fill="#E63912" d="M0 112.2h211.2v17.9H0z"/><g><path fill="none" d="M1.2 12.3h210.2v99.2H1.2z"/><path fill="#FFF" d="M37.8 32.2c0 12.7-7.7 19.4-17.1 19.4-9.7 0-16.6-7.5-16.6-18.7 0-11.7 7.3-19.3 17.1-19.3 10.1.1 16.6 7.7 16.6 18.6zm-28.6.6c0 7.9 4.3 14.9 11.8 14.9 7.5 0 11.8-6.9 11.8-15.3 0-7.3-3.8-14.9-11.8-14.9-7.9 0-11.8 7.3-11.8 15.3zM62.7 43.8c0 2.7.1 5.1.2 7.2h-4.3l-.3-4.3h-.1c-1.3 2.1-4 4.9-8.8 4.9-4.2 0-9.1-2.3-9.1-11.6V24.6h4.8v14.6c0 5 1.5 8.4 5.9 8.4 3.2 0 5.5-2.2 6.3-4.4.3-.7.4-1.6.4-2.5V24.6h4.8v19.2zM67.3 32.8c0-3.1-.1-5.8-.2-8.2h4.2l.2 5.2h.2c1.2-3.5 4.1-5.8 7.3-5.8.5 0 .9.1 1.4.2v4.5c-.5-.1-1-.2-1.6-.2-3.4 0-5.8 2.6-6.5 6.2-.1.7-.2 1.4-.2 2.2V51h-4.8V32.8zM95.4 51L86 14.2h5l4.4 18.6c1.1 4.6 2.1 9.2 2.7 12.7h.1c.6-3.7 1.8-8 3-12.8l4.9-18.5h5l4.5 18.7c1 4.4 2 8.7 2.6 12.6h.1c.8-4 1.8-8.1 3-12.7l4.9-18.5h4.9L120.6 51h-5L111 31.9c-1.1-4.7-1.9-8.3-2.4-12h-.1c-.7 3.7-1.5 7.3-2.8 12L100.4 51h-5zM154.9 37.6c0 9.8-6.8 14-13.2 14-7.2 0-12.7-5.2-12.7-13.6 0-8.8 5.8-14 13.1-14 7.7 0 12.8 5.5 12.8 13.6zm-21 .3c0 5.8 3.3 10.1 8 10.1 4.6 0 8-4.3 8-10.3 0-4.5-2.2-10.1-7.9-10.1s-8.1 5.2-8.1 10.3zM158.2 32.8c0-3.1-.1-5.8-.2-8.2h4.2l.2 5.2h.2c1.2-3.5 4.1-5.8 7.3-5.8.5 0 .9.1 1.4.2v4.5c-.5-.1-1-.2-1.6-.2-3.4 0-5.8 2.6-6.5 6.2-.1.7-.2 1.4-.2 2.2V51h-4.8V32.8zM173.5 12.3h4.8V51h-4.8V12.3zM206.5 12.3v31.9c0 2.3.1 5 .2 6.8h-4.3l-.2-4.6h-.2c-1.5 2.9-4.7 5.2-9 5.2-6.4 0-11.3-5.4-11.3-13.4-.1-8.8 5.4-14.2 11.9-14.2 4 0 6.8 1.9 8 4h.1V12.3h4.8zm-4.8 23.1c0-.6-.1-1.4-.2-2a7 7 0 00-6.9-5.6c-5 0-7.9 4.4-7.9 10.2 0 5.3 2.6 9.8 7.8 9.8 3.2 0 6.2-2.1 7.1-5.7.2-.7.2-1.3.2-2.1v-4.6zM42.8 64c.1 1.6-1.1 2.9-3.1 2.9-1.7 0-2.9-1.3-2.9-2.9 0-1.7 1.3-3 3-3 1.9 0 3 1.3 3 3zm-5.4 33.8V71.4h4.8v26.4h-4.8zM47.5 78.6c0-2.7-.1-5-.2-7.1h4.3l.3 4.4h.1c1.3-2.5 4.4-5 8.8-5 3.7 0 9.4 2.2 9.4 11.2v15.8h-4.8V82.6c0-4.3-1.6-7.8-6.1-7.8-3.2 0-5.6 2.2-6.5 4.9-.2.6-.3 1.4-.3 2.2v15.9h-4.8V78.6zM84 61.6c2.9-.4 6.3-.8 10.1-.8 6.8 0 11.7 1.6 14.9 4.6 3.3 3 5.2 7.3 5.2 13.2 0 6-1.9 10.9-5.3 14.3-3.4 3.4-9.1 5.3-16.3 5.3-3.4 0-6.2-.2-8.6-.4V61.6zm4.8 32.5c1.2.2 3 .3 4.8.3 10.2 0 15.7-5.7 15.7-15.6.1-8.7-4.9-14.2-14.9-14.2-2.5 0-4.3.2-5.6.5v29zM132.1 97.8l-.4-3.3h-.2a9.79 9.79 0 01-8.1 3.9c-5.4 0-8.1-3.8-8.1-7.6 0-6.4 5.7-9.9 15.9-9.8v-.5c0-2.2-.6-6.1-6-6.1-2.5 0-5 .8-6.9 2l-1.1-3.2c2.2-1.4 5.4-2.3 8.7-2.3 8.1 0 10.1 5.5 10.1 10.8v9.9c0 2.3.1 4.5.4 6.3h-4.3zm-.7-13.4c-5.3-.1-11.2.8-11.2 5.9 0 3.1 2.1 4.6 4.5 4.6 3.4 0 5.6-2.2 6.4-4.4.2-.5.3-1 .3-1.5v-4.6zM146.6 63.9v7.6h6.9v3.7h-6.9v14.2c0 3.3.9 5.1 3.6 5.1 1.3 0 2.2-.2 2.8-.3l.2 3.6c-.9.4-2.4.7-4.3.7-2.2 0-4-.7-5.2-2-1.4-1.4-1.9-3.8-1.9-6.9V75.1h-4.1v-3.7h4.1v-6.3l4.8-1.2zM171.4 97.8l-.4-3.3h-.2a9.79 9.79 0 01-8.1 3.9c-5.4 0-8.1-3.8-8.1-7.6 0-6.4 5.7-9.9 15.9-9.8v-.5c0-2.2-.6-6.1-6-6.1-2.5 0-5 .8-6.9 2l-1.1-3.2c2.2-1.4 5.4-2.3 8.7-2.3 8.1 0 10.1 5.5 10.1 10.8v9.9c0 2.3.1 4.5.4 6.3h-4.3zm-.7-13.4c-5.3-.1-11.2.8-11.2 5.9 0 3.1 2.1 4.6 4.5 4.6 3.4 0 5.6-2.2 6.4-4.4.2-.5.3-1 .3-1.5v-4.6z"/></g></g></a></g><a href="https://ourworldindata.org/grapher/relative-weight-of-two-forms-of-consumption-taxation" target="_blank"><text font-size="23.4" x="15" y="33.7" fill="#555"><tspan x="15" y="33.72">Relative weight of two forms of consumption taxation, OECD average</tspan></text></a><text font-size="14.4" x="15" y="51.9" fill="#666"><tspan x="15" y="51.92">VAT and taxes on specific goods and services (mainly excise taxes) as a share of total taxation</tspan></text></g><g class="StackedArea"><defs><clipPath id="a"><path d="M52.56 0h820v963h-820z"/></clipPath></defs><g class="AxisBoxView"><g class="HorizontalAxis" fill="#666" text-anchor="middle" font-size="16.2"><text x="52.6" y="556.5">1965</text><text x="117.5" y="556.5">1970</text><text x="247.3" y="556.5">1980</text><text x="377.1" y="556.5">1990</text><text x="507" y="556.5">2000</text><text x="636.8" y="556.5">2010</text><text x="688.7" y="556.5">2014</text></g><g class="VerticalAxis" fill="#666" dominant-baseline="middle" text-anchor="end" font-size="16.2"><text x="47.56" y="535.3">0%</text><text x="47.56" y="460.3">5%</text><text x="47.56" y="385.2">10%</text><text x="47.56" y="310.2">15%</text><text x="47.56" y="235.2">20%</text><text x="47.56" y="160.1">25%</text><text x="47.56" y="85.1">30%</text></g><g class="AxisGridLines"><path stroke="#ccc" d="M52.56 535.3h636.15"/><path stroke="#ddd" stroke-dasharray="3,2" d="M52.56 460.3h636.15M52.56 385.2h636.15M52.56 310.2h636.15M52.56 235.2h636.15M52.56 160.1h636.15M52.56 85.1h636.15"/></g><g class="AxisGridLines" stroke="#ddd" stroke-dasharray="3,2"><path d="M117.5 535.3V75M247.3 535.3V75M377.1 535.3V75M507 535.3V75M636.8 535.3V75"/></g></g><g clip-path="url(#a)"><g class="HeightedLegend clickable"><g class="legendMark"><path fill="#34983f" d="M693.71 160.65h10v2.5h-10z"/><text font-size="14.4" x="708.7" y="158.5" fill="#333"><tspan x="708.71" y="158.47">Taxes on specific</tspan><tspan x="708.71" y="174.31">goods and services</tspan></text></g><g class="legendMark"><path fill="#3360a9" d="M693.71 383.35h10v2.5h-10z"/><text font-size="14.4" x="708.7" y="388.9" fill="#333"><tspan x="708.71" y="388.92">Value Added Taxes</tspan></text></g></g><g class="Areas"><path d="M52.6 502l38.9-19.5 13-14.2 13-28.4 13-23.7 12.9 4.4 13-31.1 13 1.8 13 11.4 13-8.1 13-6.9 12.9-14.6 13-1.4 13 3.4 13-.1 13 1.1 12.9-3.5 13-2.3 13-4.7 13-22.7 13-24.2 13-2.1 12.9 6.4 13-38.9 13 6.1 13 .8 13-7.6 13-8.5 12.9-6.7 13 .5 13-4.3 13 2.3 13-8.8 13-11.1 12.9.4 13-4.9 13-2.8 13-2 13 .6 13 2.3 12.9 3.5 13-.4 13 .4 13-8.8 13 .6 12.9 1.7 13 .1 13-3.6.01 301.4H52.56" fill="#3360a9" fill-opacity=".7" class="OECD-average_1-area"/><path d="M52.6 137.6l38.9 22.7 13-6.1 13-24.5 13 1.3 12.9-4.6 13-15.9 13 26.1 13-.1 13 3.8 13 2.8 12.9-5.3 13-5.4 13-8.3 13-.9 13-2.1 12.9-8.3 13 .3 13 9.7 13-16.2 13-18.7 13 15.9 12.9 18 13-27 13 5.6 13-1.7 13-4.5 13-12 12.9 5.2 13 5.2 13-.4 13 6 13-13.9 13-3.7 12.9 3.3 13-6.8 13-2.1 13 1.3 13 6 13 9.5 12.9 6 13 1.5 13-6.9 13-10.7 13 3.9 12.9 1.9 13 2.8 13-.4v144l-13 3.6-13-.1-12.9-1.7-13-.6-13 8.8-13-.4-13 .4-12.9-3.5-13-2.3-13-.6-13 2-13 2.8-13 4.9-12.9-.4-13 11.1-13 8.8-13-2.3-13 4.3-13-.5-12.9 6.7-13 8.5-13 7.6-13-.8-13-6.1-13 38.9-12.9-6.4-13 2.1-13 24.2-13 22.7-13 4.7-13 2.3-12.9 3.5-13-1.1-13 .1-13-3.4-13 1.4-12.9 14.6-13 6.9-13 8.1-13-11.4-13-1.8-13 31.1-12.9-4.4-13 23.7-13 28.4-13 14.2L52.6 502" fill="#34983f" fill-opacity=".7" class="OECD-average_0-area"/><path stroke-linecap="round" d="M52.6 502l38.9-19.5 13-14.2 13-28.4 13-23.7 12.9 4.4 13-31.1 13 1.8 13 11.4 13-8.1 13-6.9 12.9-14.6 13-1.4 13 3.4 13-.1 13 1.1 12.9-3.5 13-2.3 13-4.7 13-22.7 13-24.2 13-2.1 12.9 6.4 13-38.9 13 6.1 13 .8 13-7.6 13-8.5 12.9-6.7 13 .5 13-4.3 13 2.3 13-8.8 13-11.1 12.9.4 13-4.9 13-2.8 13-2 13 .6 13 2.3 12.9 3.5 13-.4 13 .4 13-8.8 13 .6 12.9 1.7 13 .1 13-3.6" stroke="#2B508D" stroke-opacity=".7" stroke-width=".5" fill="none" class="OECD-average_1-border"/><path stroke-linecap="round" d="M52.6 137.6l38.9 22.7 13-6.1 13-24.5 13 1.3 12.9-4.6 13-15.9 13 26.1 13-.1 13 3.8 13 2.8 12.9-5.3 13-5.4 13-8.3 13-.9 13-2.1 12.9-8.3 13 .3 13 9.7 13-16.2 13-18.7 13 15.9 12.9 18 13-27 13 5.6 13-1.7 13-4.5 13-12 12.9 5.2 13 5.2 13-.4 13 6 13-13.9 13-3.7 12.9 3.3 13-6.8 13-2.1 13 1.3 13 6 13 9.5 12.9 6 13 1.5 13-6.9 13-10.7 13 3.9 12.9 1.9 13 2.8 13-.4" stroke="#2C7F35" stroke-opacity=".7" stroke-width=".5" fill="none" class="OECD-average_0-border"/></g></g></g><g class="SourcesFooter" fill="#777"><g class="clickable" fill="#777"><text font-size="12.6" x="15" y="581.6"><tspan x="15" y="581.58">Source: OECD – Consumption Tax Trends 2016</tspan></text></g><text font-size="12.6" x="597.6" y="581.6"><tspan x="597.62" y="581.58"><a target="_blank" href="https://ourworldindata.org/taxation/" fill="#777">OurWorldInData.org/taxation/</a> • <a href="http://creativecommons.org/licenses/by-sa/4.0/deed.en_US" target="_blank" fill="#777">CC BY-SA</a></tspan></text></g></g></svg>

<svg xmlns="http://www.w3.org/2000/svg" version="1.1" style="font-family: 'Helvetica Neue', Helvetica, Arial, sans-serif; font-size: 18px; background-color: white; text-rendering: optimizeLegibility; -webkit-font-smoothing: antialiased;" width="850" height="600"><g class="ChartTab"><g class="HeaderView"><g opacity="0.8" transform="translate(770, 15) scale(0.31)"><a xmlns:xlink="http://www.w3.org/1999/xlink" xlink:href="https://ourworldindata.org" target="_blank"><g><rect x="0" y="0" fill="#1B2543" width="211.2" height="130.1"/><rect x="0" y="112.2" fill="#E63912" width="211.2" height="17.9"/><g><rect x="1.2" y="12.3" fill="none" width="210.2" height="99.2"/><path fill="#FFFFFF" d="M37.8,32.2c0,12.7-7.7,19.4-17.1,19.4c-9.7,0-16.6-7.5-16.6-18.7c0-11.7,7.3-19.3,17.1-19.3 C31.3,13.7,37.8,21.3,37.8,32.2z M9.2,32.8c0,7.9,4.3,14.9,11.8,14.9c7.5,0,11.8-6.9,11.8-15.3c0-7.3-3.8-14.9-11.8-14.9 C13.1,17.5,9.2,24.8,9.2,32.8z"/><path fill="#FFFFFF" d="M62.7,43.8c0,2.7,0.1,5.1,0.2,7.2h-4.3l-0.3-4.3h-0.1c-1.3,2.1-4,4.9-8.8,4.9c-4.2,0-9.1-2.3-9.1-11.6 V24.6h4.8v14.6c0,5,1.5,8.4,5.9,8.4c3.2,0,5.5-2.2,6.3-4.4c0.3-0.7,0.4-1.6,0.4-2.5V24.6h4.8V43.8z"/><path fill="#FFFFFF" d="M67.3,32.8c0-3.1-0.1-5.8-0.2-8.2h4.2l0.2,5.2h0.2c1.2-3.5,4.1-5.8,7.3-5.8c0.5,0,0.9,0.1,1.4,0.2v4.5 c-0.5-0.1-1-0.2-1.6-0.2c-3.4,0-5.8,2.6-6.5,6.2c-0.1,0.7-0.2,1.4-0.2,2.2V51h-4.8V32.8z"/><path fill="#FFFFFF" d="M95.4,51l-9.4-36.8h5l4.4,18.6c1.1,4.6,2.1,9.2,2.7,12.7h0.1c0.6-3.7,1.8-8,3-12.8l4.9-18.5h5l4.5,18.7 c1,4.4,2,8.7,2.6,12.6h0.1c0.8-4,1.8-8.1,3-12.7l4.9-18.5h4.9L120.6,51h-5L111,31.9c-1.1-4.7-1.9-8.3-2.4-12h-0.1 c-0.7,3.7-1.5,7.3-2.8,12L100.4,51H95.4z"/><path fill="#FFFFFF" d="M154.9,37.6c0,9.8-6.8,14-13.2,14c-7.2,0-12.7-5.2-12.7-13.6c0-8.8,5.8-14,13.1-14 C149.8,24,154.9,29.5,154.9,37.6z M133.9,37.9c0,5.8,3.3,10.1,8,10.1c4.6,0,8-4.3,8-10.3c0-4.5-2.2-10.1-7.9-10.1 C136.3,27.6,133.9,32.8,133.9,37.9z"/><path fill="#FFFFFF" d="M158.2,32.8c0-3.1-0.1-5.8-0.2-8.2h4.2l0.2,5.2h0.2c1.2-3.5,4.1-5.8,7.3-5.8c0.5,0,0.9,0.1,1.4,0.2v4.5 c-0.5-0.1-1-0.2-1.6-0.2c-3.4,0-5.8,2.6-6.5,6.2c-0.1,0.7-0.2,1.4-0.2,2.2V51h-4.8V32.8z"/><path fill="#FFFFFF" d="M173.5,12.3h4.8V51h-4.8V12.3z"/><path fill="#FFFFFF" d="M206.5,12.3v31.9c0,2.3,0.1,5,0.2,6.8h-4.3l-0.2-4.6H202c-1.5,2.9-4.7,5.2-9,5.2 c-6.4,0-11.3-5.4-11.3-13.4c-0.1-8.8,5.4-14.2,11.9-14.2c4,0,6.8,1.9,8,4h0.1V12.3H206.5z M201.7,35.4c0-0.6-0.1-1.4-0.2-2 c-0.7-3.1-3.3-5.6-6.9-5.6c-5,0-7.9,4.4-7.9,10.2c0,5.3,2.6,9.8,7.8,9.8c3.2,0,6.2-2.1,7.1-5.7c0.2-0.7,0.2-1.3,0.2-2.1V35.4z"/><path fill="#FFFFFF" d="M42.8,64c0.1,1.6-1.1,2.9-3.1,2.9c-1.7,0-2.9-1.3-2.9-2.9c0-1.7,1.3-3,3-3C41.7,61,42.8,62.3,42.8,64z M37.4,97.8V71.4h4.8v26.4H37.4z"/><path fill="#FFFFFF" d="M47.5,78.6c0-2.7-0.1-5-0.2-7.1h4.3l0.3,4.4h0.1c1.3-2.5,4.4-5,8.8-5c3.7,0,9.4,2.2,9.4,11.2v15.8h-4.8 V82.6c0-4.3-1.6-7.8-6.1-7.8c-3.2,0-5.6,2.2-6.5,4.9c-0.2,0.6-0.3,1.4-0.3,2.2v15.9h-4.8V78.6z"/><path fill="#FFFFFF" d="M84,61.6c2.9-0.4,6.3-0.8,10.1-0.8c6.8,0,11.7,1.6,14.9,4.6c3.3,3,5.2,7.3,5.2,13.2c0,6-1.9,10.9-5.3,14.3 c-3.4,3.4-9.1,5.3-16.3,5.3c-3.4,0-6.2-0.2-8.6-0.4V61.6z M88.8,94.1c1.2,0.2,3,0.3,4.8,0.3c10.2,0,15.7-5.7,15.7-15.6 c0.1-8.7-4.9-14.2-14.9-14.2c-2.5,0-4.3,0.2-5.6,0.5V94.1z"/><path fill="#FFFFFF" d="M132.1,97.8l-0.4-3.3h-0.2c-1.5,2.1-4.3,3.9-8.1,3.9c-5.4,0-8.1-3.8-8.1-7.6c0-6.4,5.7-9.9,15.9-9.8v-0.5 c0-2.2-0.6-6.1-6-6.1c-2.5,0-5,0.8-6.9,2l-1.1-3.2c2.2-1.4,5.4-2.3,8.7-2.3c8.1,0,10.1,5.5,10.1,10.8v9.9c0,2.3,0.1,4.5,0.4,6.3 H132.1z M131.4,84.4c-5.3-0.1-11.2,0.8-11.2,5.9c0,3.1,2.1,4.6,4.5,4.6c3.4,0,5.6-2.2,6.4-4.4c0.2-0.5,0.3-1,0.3-1.5V84.4z"/><path fill="#FFFFFF" d="M146.6,63.9v7.6h6.9v3.7h-6.9v14.2c0,3.3,0.9,5.1,3.6,5.1c1.3,0,2.2-0.2,2.8-0.3l0.2,3.6 c-0.9,0.4-2.4,0.7-4.3,0.7c-2.2,0-4-0.7-5.2-2c-1.4-1.4-1.9-3.8-1.9-6.9V75.1h-4.1v-3.7h4.1v-6.3L146.6,63.9z"/><path fill="#FFFFFF" d="M171.4,97.8l-0.4-3.3h-0.2c-1.5,2.1-4.3,3.9-8.1,3.9c-5.4,0-8.1-3.8-8.1-7.6c0-6.4,5.7-9.9,15.9-9.8v-0.5 c0-2.2-0.6-6.1-6-6.1c-2.5,0-5,0.8-6.9,2l-1.1-3.2c2.2-1.4,5.4-2.3,8.7-2.3c8.1,0,10.1,5.5,10.1,10.8v9.9c0,2.3,0.1,4.5,0.4,6.3 H171.4z M170.7,84.4c-5.3-0.1-11.2,0.8-11.2,5.9c0,3.1,2.1,4.6,4.5,4.6c3.4,0,5.6-2.2,6.4-4.4c0.2-0.5,0.3-1,0.3-1.5V84.4z"/></g></g></a></g><a href="https://ourworldindata.org/grapher/relative-weight-of-two-forms-of-consumption-taxation" target="_blank"><text font-size="23.40" x="15.0" y="33.7" fill="#555"><tspan x="15" y="33.72">Relative weight of two forms of consumption taxation, OECD average</tspan></text></a><text font-size="14.40" x="15.0" y="51.9" fill="#666"><tspan x="15" y="51.919999999999995">VAT and taxes on specific goods and services (mainly excise taxes) as a share of total taxation</tspan></text></g><g class="StackedArea"><defs><clipPath id="boundsClip-491"><rect x="52.562" y="0" width="820" height="963"></rect></clipPath></defs><g class="AxisBoxView"><g class="HorizontalAxis"><text x="52.6" y="556.5" fill="#666" text-anchor="middle" font-size="16.2">1965</text><text x="117.5" y="556.5" fill="#666" text-anchor="middle" font-size="16.2">1970</text><text x="247.3" y="556.5" fill="#666" text-anchor="middle" font-size="16.2">1980</text><text x="377.1" y="556.5" fill="#666" text-anchor="middle" font-size="16.2">1990</text><text x="507" y="556.5" fill="#666" text-anchor="middle" font-size="16.2">2000</text><text x="636.8" y="556.5" fill="#666" text-anchor="middle" font-size="16.2">2010</text><text x="688.7" y="556.5" fill="#666" text-anchor="middle" font-size="16.2">2014</text></g><g class="VerticalAxis"><text x="47.56" y="535.3" fill="#666" dominant-baseline="middle" text-anchor="end" font-size="16.2">0%</text><text x="47.56" y="460.3" fill="#666" dominant-baseline="middle" text-anchor="end" font-size="16.2">5%</text><text x="47.56" y="385.2" fill="#666" dominant-baseline="middle" text-anchor="end" font-size="16.2">10%</text><text x="47.56" y="310.2" fill="#666" dominant-baseline="middle" text-anchor="end" font-size="16.2">15%</text><text x="47.56" y="235.2" fill="#666" dominant-baseline="middle" text-anchor="end" font-size="16.2">20%</text><text x="47.56" y="160.1" fill="#666" dominant-baseline="middle" text-anchor="end" font-size="16.2">25%</text><text x="47.56" y="85.1" fill="#666" dominant-baseline="middle" text-anchor="end" font-size="16.2">30%</text></g><g class="AxisGridLines"><line x1="52.56" y1="535.3" x2="688.71" y2="535.3" stroke="#ccc"></line><line x1="52.56" y1="460.3" x2="688.71" y2="460.3" stroke="#ddd" stroke-dasharray="3,2"></line><line x1="52.56" y1="385.2" x2="688.71" y2="385.2" stroke="#ddd" stroke-dasharray="3,2"></line><line x1="52.56" y1="310.2" x2="688.71" y2="310.2" stroke="#ddd" stroke-dasharray="3,2"></line><line x1="52.56" y1="235.2" x2="688.71" y2="235.2" stroke="#ddd" stroke-dasharray="3,2"></line><line x1="52.56" y1="160.1" x2="688.71" y2="160.1" stroke="#ddd" stroke-dasharray="3,2"></line><line x1="52.56" y1="85.1" x2="688.71" y2="85.1" stroke="#ddd" stroke-dasharray="3,2"></line></g><g class="AxisGridLines"><line x1="117.5" y1="535.30" x2="117.5" y2="75.00" stroke="#ddd" stroke-dasharray="3,2"></line><line x1="247.3" y1="535.30" x2="247.3" y2="75.00" stroke="#ddd" stroke-dasharray="3,2"></line><line x1="377.1" y1="535.30" x2="377.1" y2="75.00" stroke="#ddd" stroke-dasharray="3,2"></line><line x1="507" y1="535.30" x2="507" y2="75.00" stroke="#ddd" stroke-dasharray="3,2"></line><line x1="636.8" y1="535.30" x2="636.8" y2="75.00" stroke="#ddd" stroke-dasharray="3,2"></line></g></g><g clip-path="url(#boundsClip-491)"><g class="HeightedLegend clickable"><g class="legendMark"><rect x="693.712" y="146.95000000000002" width="139.56" height="29.900000000000002" fill="#fff" opacity="0"></rect><rect x="693.712" y="160.65" width="10" height="2.5" fill="#34983f"></rect><text font-size="14.40" x="708.7" y="158.5" fill="#333"><tspan x="708.712" y="158.47000000000003">Taxes on specific</tspan><tspan x="708.712" y="174.31000000000003">goods and services</tspan></text></g><g class="legendMark"><rect x="693.712" y="377.40000000000003" width="141.288" height="14.4" fill="#fff" opacity="0"></rect><rect x="693.712" y="383.35" width="10" height="2.5" fill="#3360a9"></rect><text font-size="14.40" x="708.7" y="388.9" fill="#333"><tspan x="708.712" y="388.92">Value Added Taxes</tspan></text></g></g><g class="Areas"><rect x="52.562" y="75" width="636.15" height="460.29999999999995" opacity="0" fill="rgba(255,255,255,0)"></rect><path stroke-linecap="round" d="M52.6 502L91.5 482.5L104.5 468.3L117.5 439.9L130.5 416.2L143.4 420.6L156.4 389.5L169.4 391.3L182.4 402.7L195.4 394.6L208.4 387.7L221.3 373.1L234.3 371.7L247.3 375.1L260.3 375L273.3 376.1L286.2 372.6L299.2 370.3L312.2 365.6L325.2 342.9L338.2 318.7L351.2 316.6L364.1 323L377.1 284.1L390.1 290.2L403.1 291L416.1 283.4L429.1 274.9L442 268.2L455 268.7L468 264.4L481 266.7L494 257.9L507 246.8L519.9 247.2L532.9 242.3L545.9 239.5L558.9 237.5L571.9 238.1L584.9 240.4L597.8 243.9L610.8 243.5L623.8 243.9L636.8 235.1L649.8 235.7L662.7 237.4L675.7 237.5L688.7 233.9L688.712 535.3L52.562 535.3" fill="#3360a9" fill-opacity="0.7" class="OECD-average_1-area"></path><path stroke-linecap="round" d="M52.6 137.6L91.5 160.3L104.5 154.2L117.5 129.7L130.5 131L143.4 126.4L156.4 110.5L169.4 136.6L182.4 136.5L195.4 140.3L208.4 143.1L221.3 137.8L234.3 132.4L247.3 124.1L260.3 123.2L273.3 121.1L286.2 112.8L299.2 113.1L312.2 122.8L325.2 106.6L338.2 87.9L351.2 103.8L364.1 121.8L377.1 94.8L390.1 100.4L403.1 98.7L416.1 94.2L429.1 82.2L442 87.4L455 92.6L468 92.2L481 98.2L494 84.3L507 80.6L519.9 83.9L532.9 77.1L545.9 75L558.9 76.3L571.9 82.3L584.9 91.8L597.8 97.8L610.8 99.3L623.8 92.4L636.8 81.7L649.8 85.6L662.7 87.5L675.7 90.3L688.7 89.9L688.7 233.9L675.7 237.5L662.7 237.4L649.8 235.7L636.8 235.1L623.8 243.9L610.8 243.5L597.8 243.9L584.9 240.4L571.9 238.1L558.9 237.5L545.9 239.5L532.9 242.3L519.9 247.2L507 246.8L494 257.9L481 266.7L468 264.4L455 268.7L442 268.2L429.1 274.9L416.1 283.4L403.1 291L390.1 290.2L377.1 284.1L364.1 323L351.2 316.6L338.2 318.7L325.2 342.9L312.2 365.6L299.2 370.3L286.2 372.6L273.3 376.1L260.3 375L247.3 375.1L234.3 371.7L221.3 373.1L208.4 387.7L195.4 394.6L182.4 402.7L169.4 391.3L156.4 389.5L143.4 420.6L130.5 416.2L117.5 439.9L104.5 468.3L91.5 482.5L52.6 502" fill="#34983f" fill-opacity="0.7" class="OECD-average_0-area"></path><path stroke-linecap="round" d="M52.6 502L91.5 482.5L104.5 468.3L117.5 439.9L130.5 416.2L143.4 420.6L156.4 389.5L169.4 391.3L182.4 402.7L195.4 394.6L208.4 387.7L221.3 373.1L234.3 371.7L247.3 375.1L260.3 375L273.3 376.1L286.2 372.6L299.2 370.3L312.2 365.6L325.2 342.9L338.2 318.7L351.2 316.6L364.1 323L377.1 284.1L390.1 290.2L403.1 291L416.1 283.4L429.1 274.9L442 268.2L455 268.7L468 264.4L481 266.7L494 257.9L507 246.8L519.9 247.2L532.9 242.3L545.9 239.5L558.9 237.5L571.9 238.1L584.9 240.4L597.8 243.9L610.8 243.5L623.8 243.9L636.8 235.1L649.8 235.7L662.7 237.4L675.7 237.5L688.7 233.9" stroke="rgb(43, 80, 141)" stroke-opacity="0.7" stroke-width="0.5" fill="none" class="OECD-average_1-border"></path><path stroke-linecap="round" d="M52.6 137.6L91.5 160.3L104.5 154.2L117.5 129.7L130.5 131L143.4 126.4L156.4 110.5L169.4 136.6L182.4 136.5L195.4 140.3L208.4 143.1L221.3 137.8L234.3 132.4L247.3 124.1L260.3 123.2L273.3 121.1L286.2 112.8L299.2 113.1L312.2 122.8L325.2 106.6L338.2 87.9L351.2 103.8L364.1 121.8L377.1 94.8L390.1 100.4L403.1 98.7L416.1 94.2L429.1 82.2L442 87.4L455 92.6L468 92.2L481 98.2L494 84.3L507 80.6L519.9 83.9L532.9 77.1L545.9 75L558.9 76.3L571.9 82.3L584.9 91.8L597.8 97.8L610.8 99.3L623.8 92.4L636.8 81.7L649.8 85.6L662.7 87.5L675.7 90.3L688.7 89.9" stroke="rgb(44, 127, 53)" stroke-opacity="0.7" stroke-width="0.5" fill="none" class="OECD-average_0-border"></path></g></g></g><g style="fill: #777;" class="SourcesFooter"><g style="fill: #777;" class="clickable"><text font-size="12.60" x="15.0" y="581.6"><tspan x="15" y="581.58">Source: OECD – Consumption Tax Trends 2016</tspan></text></g><text font-size="12.60" x="597.6" y="581.6"><tspan x="597.616" y="581.58"><a target='_blank' style='fill: #777;' href='https://ourworldindata.org/taxation/'>OurWorldInData.org/taxation/</a> • <a style="fill: #777;" href="http://creativecommons.org/licenses/by-sa/4.0/deed.en_US" target="_blank">CC BY-SA</a></tspan></text></g></g></svg>
